assets/images/simple-illustrations/simple-illustration__hotdogstand.svg

<svg xmlns="http://www.w3.org/2000/svg" viewBox="0 0 68 68"><path fill="#002140" d="M51.148 25.0332H49.0946V25.0198L45.9446 21.8698H45.918C45.9413 21.7332 45.9613 21.5965 45.978 21.4565C46.0113 21.1665 46.028 20.8598 46.028 20.5265C46.028 20.3265 46.0113 20.1165 45.988 19.9165H46.028L51.148 25.0332Z"/><path fill="#0164BF" d="M57.2778 53.1331H45.8711V56.3364H57.2778V53.1331Z"/><path fill="#F25730" d="M24.0277 15.1265C24.961 14.6098 25.8943 14.6098 26.8277 15.1265C27.7577 15.6432 28.691 15.6432 29.6243 15.1265C30.5577 14.6098 31.4877 14.6098 32.421 15.1265C33.3543 15.6432 34.2877 15.6432 35.2177 15.1265C36.151 14.6098 37.0843 14.6098 38.0177 15.1265C38.9477 15.6432 40.1477 15.6432 41.081 15.1265C41.7377 14.8198 42.2243 14.2665 42.421 13.6965H42.4877C42.8377 13.7065 42.831 13.6832 43.2643 13.5998C45.2343 13.1898 46.5777 13.5998 47.291 14.8265C48.0843 16.3165 47.4943 18.2898 45.891 19.3098C45.6543 19.4598 45.3977 19.5898 45.121 19.6932C44.1677 20.0598 42.9843 20.3165 41.7043 20.5332C41.3643 18.7865 41.1077 16.6398 37.9677 16.6398H22.9477C21.0077 16.6898 19.8843 18.0798 19.551 19.7132L19.441 19.6932C17.271 18.8798 16.3643 16.5365 17.271 14.8265C17.9843 13.5998 19.3277 13.1898 21.2977 13.5998C22.211 13.7665 21.941 13.6932 22.3343 13.7398C22.3277 14.6765 23.1777 15.5798 24.031 15.1265H24.0277Z"/><path fill="#FFA75A" d="M45.8711 25.2965V25.0332H49.0944H51.1478H57.2778V53.1332H45.8711V25.2965Z"/><path fill="#FED607" d="M23.0513 25.0231C22.8513 25.0231 22.6646 25.0098 22.4813 24.9798C21.6913 24.8598 21.0546 24.4865 20.568 23.9598C19.5846 22.8931 19.2346 21.1998 19.5413 19.7098C19.8746 18.0731 20.998 16.6831 22.938 16.6365H37.958C41.098 16.6365 41.3546 18.7831 41.6946 20.5298C42.9746 20.3131 44.158 20.0565 45.1113 19.6898C45.388 19.5865 45.6446 19.4565 45.8813 19.3065C45.918 19.4798 45.9546 19.6931 45.9813 19.9165C46.0046 20.1165 46.0213 20.3298 46.0213 20.5265C46.0213 20.8565 46.0046 21.1665 45.9713 21.4565C45.9546 21.5965 45.9346 21.7331 45.9113 21.8631C45.8346 22.3065 45.7146 22.6965 45.558 23.0398C45.3913 23.4065 45.1746 23.7165 44.9213 23.9731C44.418 24.4865 43.7613 24.7931 42.9846 24.9298C42.6513 24.9898 42.2946 25.0165 41.9213 25.0165H23.148C23.1146 25.0165 23.0813 25.0165 23.0446 25.0165L23.0513 25.0231Z"/><path fill="#0164BF" d="M45.8714 53.1331H34.9414V56.3364H45.8714V53.1331Z"/><path fill="#FFFAF0" d="M45.871 25.2965L38.9243 33.2699L37.841 34.5165H33.4476H33.001L41.1776 25.1299V25.0332H43.0076H44.951H45.871V25.2965Z"/><path fill="#8DC8FF" d="M43.8645 38.2332V41.6632H43.7479L36.7412 48.6665V43.0898L41.5979 38.2332H43.8645Z"/><path fill="#0185FF" d="M43.8645 41.6631V48.6664H36.7412L43.7479 41.6631H43.8645Z"/><path fill="#002140" d="M38.9444 33.2833H42.8777C43.8944 33.2833 43.8944 34.7666 42.8777 34.7666H37.8311C37.8377 34.6866 37.8411 34.6033 37.8411 34.5133L38.9277 33.2666L38.9477 33.2799L38.9444 33.2833Z"/><path fill="#0185FF" d="M41.5979 38.2332L36.7412 43.0898V38.2332H41.5979Z"/><path fill="#FED607" d="M26.8239 11.8865C27.7539 12.4032 28.6872 12.4032 29.6206 11.8865C30.5539 11.3699 31.4839 11.3699 32.4172 11.8865C33.3506 12.4032 34.2839 12.4032 35.2139 11.8865C36.1472 11.3699 37.0806 11.3699 38.0139 11.8865C38.9439 12.4032 39.8772 12.4032 40.8106 11.8865C41.7672 11.3832 42.6872 12.3899 42.4839 13.4499C42.4672 13.5299 42.4439 13.6132 42.4172 13.6932C42.2206 14.2632 41.7339 14.8165 41.0772 15.1232C40.1439 15.6399 38.9439 15.6399 38.0139 15.1232C37.0806 14.6065 36.1472 14.6065 35.2139 15.1232C34.2839 15.6399 33.3506 15.6399 32.4172 15.1232C31.4839 14.6065 30.5539 14.6065 29.6206 15.1232C28.6872 15.6399 27.7539 15.6399 26.8239 15.1232C25.8906 14.6065 24.9572 14.6065 24.0239 15.1232C23.1706 15.5732 22.3172 14.6732 22.3272 13.7365C22.3272 13.6832 22.3272 13.6265 22.3372 13.5732C22.4172 12.8699 22.8572 12.2699 23.6772 11.8865C24.6106 11.3699 25.8906 11.3699 26.8239 11.8865Z"/><path fill="#F25730" d="M41.178 25.0332V25.1299L33.0013 34.5165H29.058H28.6113L36.788 25.1299V25.0332H41.178Z"/><path fill="#FFFAF0" d="M36.7874 25.1299L28.6107 34.5165H24.6707H24.2207L32.3974 25.1299V25.0332H36.7874V25.1299Z"/><path fill="#0185FF" d="M34.9407 53.1331V56.3365H27.2207V53.1331V49.6365H34.9407V53.1331Z"/><path fill="#002140" d="M34.9407 48.1631H27.2207V49.6364H34.9407V48.1631Z"/><path fill="#0185FF" d="M34.9407 40.9998H27.2207V48.1631H34.9407V40.9998Z"/><path fill="#FFFAF0" d="M37.8312 34.7665C37.5945 37.5598 33.4512 37.4765 33.4512 34.5132H37.8412C37.8412 34.5999 37.8378 34.6832 37.8312 34.7665Z"/><path fill="#F25730" d="M32.3977 25.1299L24.2211 34.5165H20.2811H19.8311L28.0077 25.1299V25.0332H32.3977V25.1299Z"/><path fill="#F25730" d="M33.4476 34.5166C33.4476 37.5633 29.0576 37.5633 29.0576 34.5166H33.4476Z"/><path fill="#0164BF" d="M27.2208 53.1331H16.8574V56.3364H27.2208V53.1331Z"/><path fill="#8DC8FF" d="M25.5212 38.2332V41.6632H25.4012L18.3945 48.6665V43.0898L23.2545 38.2332H25.5212Z"/><path fill="#0185FF" d="M25.5212 41.6631V48.6664H18.3945L25.4012 41.6631H25.5212Z"/><path fill="#FFFAF0" d="M29.058 34.5166C29.058 37.5633 24.668 37.5633 24.668 34.5166H29.058Z"/><path fill="#F25730" d="M23.771 25.0332V25.1299L15.5943 34.5165H11.501L19.6776 25.1299L19.7643 25.0332H20.531H22.4743H23.051H23.771Z"/><path fill="#0185FF" d="M23.2545 38.2332L18.3945 43.0898V38.2332H23.2545Z"/><path fill="#F25730" d="M24.2212 34.5166H24.6712C24.6712 37.5633 20.2812 37.5633 20.2812 34.5166H24.2212Z"/><path fill="#FFFAF0" d="M20.2806 34.5166C20.2806 36.6133 18.2073 37.2666 16.9106 36.4833C16.3206 36.1233 15.8906 35.4699 15.8906 34.5166H20.2806Z"/><path fill="#FFA75A" d="M24.6708 34.5165C24.6708 37.5632 29.0608 37.5632 29.0608 34.5165C29.0608 37.5632 33.4507 37.5632 33.4507 34.5165C33.4507 37.4765 37.5941 37.5632 37.8307 34.7699H42.8774C43.8941 34.7699 43.8941 33.2865 42.8774 33.2865H38.9441L38.9241 33.2732L45.8707 25.3032V53.1399H34.9407V41.0032H27.2208V53.1399H16.8574V36.6332L16.9108 36.4832C18.2074 37.2699 20.2808 36.6132 20.2808 34.5165C20.2808 37.5632 24.6708 37.5632 24.6708 34.5165ZM43.8674 48.6699V38.2332H36.7441V48.6699H43.8674ZM25.5208 48.6699V38.2332H18.3974V48.6699H25.5208Z"/><path fill="#FFFAF0" d="M28.0081 25.0332V25.1299L19.8314 34.5165H15.8914H15.5947L23.7714 25.1299V25.0332H28.0081Z"/><path fill="#F25730" d="M15.5943 34.5166H15.891C15.891 37.5633 11.501 37.5633 11.501 34.5166H15.5943Z"/><path stroke="#002140" stroke-linecap="round" stroke-linejoin="round" stroke-width="1" d="M16.8574 56.3364H27.2208H34.9407H45.8707H57.2774"/><path stroke="#002140" stroke-linecap="round" stroke-linejoin="round" stroke-width="1" d="M57.2773 25.0332V53.1332V56.3365"/><path stroke="#002140" stroke-linecap="round" stroke-linejoin="round" stroke-width="1" d="M19.7646 25.0332H20.5313H22.4746H23.0513H23.7713H28.008H32.398H36.788H41.178H43.008H44.9513H45.8713H49.0946H51.148H57.278"/><path stroke="#002140" stroke-linecap="round" stroke-linejoin="round" stroke-width="1" d="M45.8711 25.0332V25.2965V53.1332V56.3365"/><path stroke="#002140" stroke-linecap="round" stroke-linejoin="round" stroke-width="1" d="M19.6776 25.1299L11.501 34.5165"/><path stroke="#002140" stroke-linecap="round" stroke-linejoin="round" stroke-width="1" d="M23.7714 25.1299L15.5947 34.5165"/><path stroke="#002140" stroke-linecap="round" stroke-linejoin="round" stroke-width="1" d="M28.0077 25.1299L19.8311 34.5165"/><path stroke="#002140" stroke-linecap="round" stroke-linejoin="round" stroke-width="1" d="M32.3974 25.1299L24.2207 34.5165"/><path stroke="#002140" stroke-linecap="round" stroke-linejoin="round" stroke-width="1" d="M36.788 25.1299L28.6113 34.5165"/><path stroke="#002140" stroke-linecap="round" stroke-linejoin="round" stroke-width="1" d="M41.1776 25.1299L33.001 34.5165"/><path stroke="#002140" stroke-linecap="round" stroke-linejoin="round" stroke-width="1" d="M46.0175 25.1299L45.8708 25.2965L38.9242 33.2699L37.8408 34.5165"/><path stroke="#002140" stroke-linecap="round" stroke-linejoin="round" stroke-width="1" d="M37.841 34.5166H33.4476H33.001H29.0576H28.611H24.671H24.221H20.281H19.831H15.891H15.5943H11.501"/><path stroke="#002140" stroke-linecap="round" stroke-linejoin="round" stroke-width="1" d="M15.891 34.5166C15.891 37.5633 11.501 37.5633 11.501 34.5166"/><path stroke="#002140" stroke-linecap="round" stroke-linejoin="round" stroke-width="1" d="M20.2806 34.5166C20.2806 36.6133 18.2073 37.2666 16.9106 36.4833C16.3206 36.1233 15.8906 35.4699 15.8906 34.5166"/><path stroke="#002140" stroke-linecap="round" stroke-linejoin="round" stroke-width="1" d="M24.6712 34.5166C24.6712 37.5633 20.2812 37.5633 20.2812 34.5166"/><path stroke="#002140" stroke-linecap="round" stroke-linejoin="round" stroke-width="1" d="M29.058 34.5166C29.058 37.5633 24.668 37.5633 24.668 34.5166"/><path stroke="#002140" stroke-linecap="round" stroke-linejoin="round" stroke-width="1" d="M33.4476 34.5166C33.4476 37.5633 29.0576 37.5633 29.0576 34.5166"/><path stroke="#002140" stroke-linecap="round" stroke-linejoin="round" stroke-width="1" d="M37.8412 34.5166C37.8412 34.6033 37.8378 34.6866 37.8312 34.7699C37.5945 37.5633 33.4512 37.4799 33.4512 34.5166"/><path stroke="#002140" stroke-linecap="round" stroke-linejoin="round" stroke-width="1" d="M16.8574 56.3365V53.1332V36.6299"/><path stroke="#002140" stroke-linecap="round" stroke-linejoin="round" stroke-width="1" d="M37.8408 34.7666H42.8775"/><path stroke="#002140" stroke-linecap="round" stroke-linejoin="round" stroke-width="1" d="M38.9443 33.2832H42.8777"/><path stroke="#002140" stroke-linecap="round" stroke-linejoin="round" stroke-width="1" d="M42.8779 34.7665C43.8946 34.7665 43.8946 33.2832 42.8779 33.2832"/><path stroke="#002140" stroke-linecap="round" stroke-linejoin="round" stroke-width="1" d="M34.9414 53.1331H45.8714H57.2781"/><path stroke="#002140" stroke-linecap="round" stroke-linejoin="round" stroke-width="1" d="M16.8574 53.1331H27.2208"/><path stroke="#002140" stroke-linecap="round" stroke-linejoin="round" stroke-width="1" d="M27.2207 56.3364V53.1331V49.6364V48.1631V40.9998"/><path stroke="#002140" stroke-linecap="round" stroke-linejoin="round" stroke-width="1" d="M34.9414 56.3364V53.1331V49.6364V48.1631V40.9998"/><path stroke="#002140" stroke-linecap="round" stroke-linejoin="round" stroke-width="1" d="M27.2207 40.9998H34.9407"/><path stroke="#002140" stroke-linecap="round" stroke-linejoin="round" stroke-width="1" d="M36.7412 38.2332V43.0898V48.6665"/><path stroke="#002140" stroke-linecap="round" stroke-linejoin="round" stroke-width="1" d="M43.8643 38.2332V41.6632V48.6665"/><path stroke="#002140" stroke-linecap="round" stroke-linejoin="round" stroke-width="1" d="M36.7412 38.2332H41.5979H43.8645"/><path stroke="#002140" stroke-linecap="round" stroke-linejoin="round" stroke-width="1" d="M36.7412 48.6665H43.8645"/><path stroke="#002140" stroke-linecap="round" stroke-linejoin="round" stroke-width="1" d="M18.3945 38.2332V43.0898V48.6665"/><path stroke="#002140" stroke-linecap="round" stroke-linejoin="round" stroke-width="1" d="M25.5205 38.2332V41.6632V48.6665"/><path stroke="#002140" stroke-linecap="round" stroke-linejoin="round" stroke-width="1" d="M18.3945 38.2332H23.2545H25.5212"/><path stroke="#002140" stroke-linecap="round" stroke-linejoin="round" stroke-width="1" d="M18.3945 48.6665H25.5212"/><path stroke="#002140" stroke-linecap="round" stroke-linejoin="round" stroke-width="1" d="M27.2207 48.1631H34.9407"/><path stroke="#002140" stroke-linecap="round" stroke-linejoin="round" stroke-width="1" d="M27.2207 49.6365H34.9407"/><path stroke="#002140" stroke-linecap="round" stroke-linejoin="round" stroke-width="1" d="M37.9614 16.6365H22.9414"/><path stroke="#002140" stroke-linecap="round" stroke-linejoin="round" stroke-width="1" d="M23.1546 25.02C23.1213 25.02 23.088 25.02 23.0513 25.02C22.8513 25.02 22.6646 25.0066 22.4813 24.9766C21.6913 24.8566 21.0546 24.4833 20.568 23.9566C19.5846 22.89 19.2346 21.1966 19.5413 19.7066C19.8746 18.07 20.998 16.68 22.938 16.6333"/><path stroke="#002140" stroke-linecap="round" stroke-linejoin="round" stroke-width="1" d="M43.4643 22.7431C42.2009 22.7431 41.9309 21.7298 41.6976 20.5298C41.3576 18.7831 41.1009 16.6365 37.9609 16.6365"/><path stroke="#002140" stroke-linecap="round" stroke-linejoin="round" stroke-width="1" d="M24.0273 15.1265C24.9607 14.6098 25.894 14.6098 26.8273 15.1265"/><path stroke="#002140" stroke-linecap="round" stroke-linejoin="round" stroke-width="1" d="M26.8242 15.1265C27.7542 15.6431 28.6876 15.6431 29.6209 15.1265"/><path stroke="#002140" stroke-linecap="round" stroke-linejoin="round" stroke-width="1" d="M29.6211 15.1265C30.5544 14.6098 31.4844 14.6098 32.4178 15.1265"/><path stroke="#002140" stroke-linecap="round" stroke-linejoin="round" stroke-width="1" d="M32.418 15.1265C33.3513 15.6431 34.2846 15.6431 35.2146 15.1265"/><path stroke="#002140" stroke-linecap="round" stroke-linejoin="round" stroke-width="1" d="M35.2139 15.1265C36.1472 14.6098 37.0805 14.6098 38.0139 15.1265"/><path stroke="#002140" stroke-linecap="round" stroke-linejoin="round" stroke-width="1" d="M38.0146 15.1265C38.9446 15.6431 40.1446 15.6431 41.078 15.1265"/><path stroke="#002140" stroke-linecap="round" stroke-linejoin="round" stroke-width="1" d="M23.6777 11.8865C24.6111 11.3699 25.8911 11.3699 26.8244 11.8865"/><path stroke="#002140" stroke-linecap="round" stroke-linejoin="round" stroke-width="1" d="M26.8242 11.8865C27.7542 12.4031 28.6876 12.4031 29.6209 11.8865"/><path stroke="#002140" stroke-linecap="round" stroke-linejoin="round" stroke-width="1" d="M29.6211 11.8865C30.5544 11.3699 31.4844 11.3699 32.4178 11.8865"/><path stroke="#002140" stroke-linecap="round" stroke-linejoin="round" stroke-width="1" d="M32.418 11.8865C33.3513 12.4031 34.2846 12.4031 35.2146 11.8865"/><path stroke="#002140" stroke-linecap="round" stroke-linejoin="round" stroke-width="1" d="M35.2139 11.8865C36.1472 11.3699 37.0805 11.3699 38.0139 11.8865"/><path stroke="#002140" stroke-linecap="round" stroke-linejoin="round" stroke-width="1" d="M38.0146 11.8865C38.9446 12.4031 39.878 12.4031 40.8113 11.8865"/><path stroke="#002140" stroke-linecap="round" stroke-linejoin="round" stroke-width="1" d="M41.9277 25.0198C42.3011 25.0198 42.6577 24.9931 42.9911 24.9331C43.7677 24.7964 44.4244 24.4898 44.9277 23.9764C45.1811 23.7198 45.3944 23.4098 45.5644 23.0431C45.7211 22.7031 45.8411 22.3131 45.9177 21.8665C45.9411 21.7365 45.9611 21.5998 45.9777 21.4598C46.0111 21.1698 46.0277 20.8631 46.0277 20.5298"/><path stroke="#002140" stroke-linecap="round" stroke-linejoin="round" stroke-width="1" d="M40.8105 11.8865C41.7672 11.3831 42.6872 12.3898 42.4839 13.4498C42.4672 13.5298 42.4439 13.6131 42.4172 13.6931C42.2205 14.2631 41.7339 14.8165 41.0772 15.1231"/><path stroke="#002140" stroke-linecap="round" stroke-linejoin="round" stroke-width="1" d="M24.0278 15.1266C23.1745 15.5766 22.3211 14.6766 22.3311 13.7399C22.3311 13.6866 22.3311 13.6299 22.3411 13.5766C22.4211 12.8732 22.8611 12.2732 23.6811 11.8899"/><path stroke="#002140" stroke-linecap="round" stroke-linejoin="round" stroke-width="1" d="M19.4342 19.6899C17.2642 18.8766 16.3575 16.5332 17.2642 14.8232"/><path stroke="#002140" stroke-linecap="round" stroke-linejoin="round" stroke-width="1" d="M21.2942 13.5964C19.3242 13.1864 17.9809 13.5964 17.2676 14.8231"/><path stroke="#002140" stroke-linecap="round" stroke-linejoin="round" stroke-width="1" d="M45.1143 19.6899C45.3909 19.5866 45.6476 19.4566 45.8843 19.3066C47.4876 18.2866 48.0776 16.3132 47.2843 14.8232"/><path stroke="#002140" stroke-linecap="round" stroke-linejoin="round" stroke-width="1" d="M43.2578 13.5964C45.2278 13.1864 46.5711 13.5964 47.2845 14.8231"/><path stroke="#002140" stroke-linecap="round" stroke-linejoin="round" stroke-width="1" d="M45.1139 19.6899C44.1606 20.0566 42.9773 20.3133 41.6973 20.5299"/><path stroke="#002140" stroke-linecap="round" stroke-linejoin="round" stroke-width="1" d="M46.0277 20.5298C46.0277 20.3298 46.011 20.1198 45.9877 19.9198C45.961 19.6931 45.9244 19.4798 45.8877 19.3098"/><path stroke="#002140" stroke-linecap="round" stroke-linejoin="round" stroke-width="1" d="M45.9443 21.8699L49.0943 25.0199"/><path stroke="#002140" stroke-linecap="round" stroke-linejoin="round" stroke-width="1" d="M46.0273 19.9131L51.1473 25.0331"/><path stroke="#002140" stroke-linecap="round" stroke-linejoin="round" stroke-width="1" d="M42.4814 13.6999C42.8314 13.7065 42.8248 13.6832 43.2581 13.5999"/><path stroke="#002140" stroke-linecap="round" stroke-linejoin="round" stroke-width="1" d="M21.2939 13.5964C22.2073 13.7631 21.9373 13.6898 22.3306 13.7364"/></svg>

<svg xmlns="http://www.w3.org/2000/svg" viewBox="0 0 68 68"><path fill="#002140" d="M51.148 25.033h-2.053v-.013l-3.15-3.15h-.027q.034-.205.06-.414c.033-.29.05-.596.05-.93 0-.2-.017-.41-.04-.61h.04z"/><path fill="#0164bf" d="M57.278 53.133H45.87v3.203h11.407z"/><path fill="#f25730" d="M24.028 15.127q1.4-.775 2.8 0 1.396.774 2.796 0 1.4-.775 2.797 0 1.4.774 2.797 0 1.4-.775 2.8 0a3.22 3.22 0 0 0 3.063 0c.657-.307 1.143-.86 1.34-1.43h.067c.35.01.343-.014.776-.097q2.956-.614 4.027 1.226c.793 1.49.203 3.464-1.4 4.484q-.355.227-.77.383c-.953.367-2.137.624-3.417.84-.34-1.747-.596-3.893-3.736-3.893h-15.02c-1.94.05-3.064 1.44-3.397 3.073l-.11-.02c-2.17-.813-3.077-3.157-2.17-4.867q1.07-1.84 4.027-1.226c.913.167.643.093 1.036.14-.006.937.844 1.84 1.697 1.386z"/><path fill="#ffa75a" d="M45.871 25.297v-.264h11.407v28.1H45.87z"/><path fill="#fed607" d="M23.051 25.023c-.2 0-.386-.013-.57-.043a3.2 3.2 0 0 1-1.913-1.02c-.983-1.067-1.333-2.76-1.027-4.25.334-1.637 1.457-3.027 3.397-3.073h15.02c3.14 0 3.397 2.146 3.737 3.893 1.28-.217 2.463-.474 3.416-.84q.416-.158.77-.384c.037.174.074.387.1.61.024.2.04.414.04.61q0 .495-.05.93-.024.211-.06.407a4.8 4.8 0 0 1-.353 1.177 3.2 3.2 0 0 1-.637.933c-.503.514-1.16.82-1.936.957q-.502.088-1.064.087H23.045z"/><path fill="#0164bf" d="M45.871 53.133h-10.93v3.203h10.93z"/><path fill="#fffaf0" d="m45.871 25.297-6.947 7.973-1.083 1.246h-4.84l8.177-9.386v-.097h4.693z"/><path fill="#8dc8ff" d="M43.865 38.233v3.43h-.117l-7.007 7.004V43.09l4.857-4.857z"/><path fill="#0185ff" d="M43.865 41.663v7.003H36.74l7.007-7.003z"/><path fill="#002140" d="M38.944 33.283h3.934c1.016 0 1.016 1.484 0 1.484H37.83q.01-.12.01-.254l1.087-1.246.02.013z"/><path fill="#0185ff" d="M41.598 38.233 36.74 43.09v-4.857z"/><path fill="#fed607" d="M26.824 11.887q1.396.774 2.797 0 1.398-.775 2.796 0 1.401.774 2.797 0 1.4-.775 2.8 0 1.395.774 2.797 0c.956-.504 1.876.503 1.673 1.563q-.026.122-.067.243c-.196.57-.683 1.124-1.34 1.43a3.22 3.22 0 0 1-3.063 0q-1.4-.774-2.8 0-1.395.775-2.797 0-1.398-.774-2.796 0-1.402.775-2.797 0-1.4-.774-2.8 0c-.853.45-1.707-.45-1.697-1.386 0-.054 0-.11.01-.164.08-.703.52-1.303 1.34-1.687.934-.516 2.214-.516 3.147 0"/><path fill="#f25730" d="M41.178 25.033v.097l-8.177 9.387h-4.39l8.177-9.387v-.097z"/><path fill="#fffaf0" d="m36.787 25.13-8.176 9.387h-4.39l8.176-9.387v-.097h4.39z"/><path fill="#0185ff" d="M34.94 53.133v3.203h-7.72v-6.7h7.72z"/><path fill="#002140" d="M34.94 48.163h-7.72v1.473h7.72z"/><path fill="#0185ff" d="M34.94 41h-7.72v7.163h7.72z"/><path fill="#fffaf0" d="M37.831 34.767c-.237 2.793-4.38 2.71-4.38-.254h4.39q0 .13-.01.254"/><path fill="#f25730" d="m32.398 25.13-8.177 9.387h-4.39l8.177-9.387v-.097h4.39zm1.05 9.387c0 3.046-4.39 3.046-4.39 0z"/><path fill="#0164bf" d="M27.22 53.133H16.858v3.203h10.364z"/><path fill="#8dc8ff" d="M25.521 38.233v3.43h-.12l-7.006 7.004V43.09l4.86-4.857z"/><path fill="#0185ff" d="M25.521 41.663v7.003h-7.126l7.006-7.003z"/><path fill="#fffaf0" d="M29.058 34.517c0 3.046-4.39 3.046-4.39 0z"/><path fill="#f25730" d="M23.771 25.033v.097l-8.177 9.387h-4.093l8.177-9.387.086-.097z"/><path fill="#0185ff" d="m23.255 38.233-4.86 4.857v-4.857z"/><path fill="#f25730" d="M24.221 34.517h.45c0 3.046-4.39 3.046-4.39 0z"/><path fill="#fffaf0" d="M20.28 34.517c0 2.096-2.073 2.75-3.37 1.966-.59-.36-1.02-1.013-1.02-1.966z"/><path fill="#ffa75a" d="M24.67 34.517c0 3.046 4.39 3.046 4.39 0 0 3.046 4.39 3.046 4.39 0 0 2.96 4.144 3.046 4.38.253h5.047c1.017 0 1.017-1.484 0-1.484h-3.933l-.02-.013 6.947-7.97V53.14H34.94V41.003h-7.72V53.14H16.857V36.633l.054-.15c1.296.787 3.37.13 3.37-1.966 0 3.046 4.39 3.046 4.39 0M43.868 48.67V38.233h-7.123V48.67zm-18.346 0V38.233h-7.124V48.67z"/><path fill="#fffaf0" d="M28.008 25.033v.097l-8.177 9.387h-4.236l8.176-9.387v-.097z"/><path fill="#f25730" d="M15.594 34.517h.297c0 3.046-4.39 3.046-4.39 0z"/><path stroke="#002140" stroke-linecap="round" stroke-linejoin="round" d="M16.857 56.336h40.42m0-31.303v31.303M19.765 25.033h37.513m-11.407 0v31.303M19.678 25.13 11.5 34.517m12.271-9.387-8.176 9.387m12.413-9.387-8.177 9.387m12.566-9.387-8.176 9.387m12.567-9.387-8.177 9.387m12.567-9.387L33 34.517m13.018-9.387-.147.167-6.947 7.973-1.083 1.246m0 .001h-26.34m4.39 0c0 3.046-4.39 3.046-4.39 0"/><path stroke="#002140" stroke-linecap="round" stroke-linejoin="round" d="M20.28 34.517c0 2.096-2.073 2.75-3.37 1.966-.59-.36-1.02-1.013-1.02-1.966m8.781 0c0 3.046-4.39 3.046-4.39 0"/><path stroke="#002140" stroke-linecap="round" stroke-linejoin="round" d="M29.058 34.517c0 3.046-4.39 3.046-4.39 0m8.78 0c0 3.046-4.39 3.046-4.39 0m8.783 0q0 .129-.01.253c-.237 2.793-4.38 2.71-4.38-.253m-16.594 21.82V36.63m20.983-1.863h5.037m-3.933-1.484h3.934m0 1.484c1.017 0 1.017-1.484 0-1.484m-7.937 19.85h22.337m-40.421 0h10.364m-.001 3.203V41m7.721 15.336V41m-7.721 0h7.72m1.801-2.767v10.433m7.123-10.433v10.434m-7.123-10.434h7.124m-7.124 10.434h7.124m-25.47-10.434v10.433m7.125-10.433v10.434m-7.125-10.434h7.126m-7.126 10.434h7.126m1.699-.504h7.72m-7.72 1.474h7.72m3.021-33h-15.02m.214 8.383h-.104c-.2 0-.386-.013-.57-.043a3.2 3.2 0 0 1-1.913-1.02c-.983-1.067-1.333-2.76-1.027-4.25.334-1.637 1.457-3.027 3.397-3.074m20.526 6.11c-1.263 0-1.533-1.013-1.766-2.213-.34-1.747-.597-3.893-3.737-3.893m-13.934-1.51q1.4-.775 2.8 0m-.003 0q1.396.774 2.797 0m0 0q1.398-.775 2.797 0m0 0q1.4.774 2.797 0m-.001 0q1.4-.775 2.8 0m.001 0c.93.516 2.13.516 3.063 0m-17.4-3.24c.933-.517 2.213-.517 3.146 0m0 0q1.396.774 2.797 0m0 0q1.398-.775 2.797 0m0 0q1.4.774 2.797 0m-.001 0q1.4-.775 2.8 0m.001 0q1.396.774 2.796 0m1.117 13.133q.561.001 1.063-.087c.777-.137 1.433-.443 1.937-.957q.38-.383.636-.933.237-.508.354-1.177.035-.196.06-.406c.033-.29.05-.597.05-.93"/><path stroke="#002140" stroke-linecap="round" stroke-linejoin="round" d="M40.81 11.887c.957-.504 1.877.503 1.674 1.563q-.026.122-.067.243c-.197.57-.683 1.124-1.34 1.43m-17.049.004c-.854.45-1.707-.45-1.697-1.387 0-.053 0-.11.01-.163.08-.704.52-1.304 1.34-1.687m-4.247 7.8c-2.17-.813-3.076-3.157-2.17-4.867m4.03-1.227q-2.956-.614-4.026 1.227m27.846 4.867q.416-.156.77-.383c1.604-1.02 2.194-2.994 1.4-4.484m-4.026-1.227q2.956-.614 4.026 1.227m-2.17 4.867c-.953.367-2.137.623-3.417.84m4.331 0c0-.2-.017-.41-.04-.61a7 7 0 0 0-.1-.61m.056 2.56 3.15 3.15m-3.067-5.107 5.12 5.12M42.481 13.7c.35.007.344-.017.777-.1"/><path stroke="#002140" stroke-linecap="round" stroke-linejoin="round" d="M21.294 13.596c.913.167.643.094 1.037.14"/></svg>
